svg/fluentui-system-icons/ic_fluent_calendar_shield_24_filled.svg

<svg width="24" height="24" viewBox="0 0 24 24" fill="none" xmlns="http://www.w3.org/2000/svg">
<path d="M21 8.5V12.6107C20.6588 12.5453 20.3278 12.4214 20.0023 12.2327C19.6719 12.0411 19.3394 11.778 19.0064 11.4304C18.4569 10.857 17.5474 10.8564 16.9972 11.4293C16.1575 12.3036 15.3066 12.6667 14.4006 12.6667C13.5893 12.6667 13.0006 13.3398 13.0006 14.0833V16.5926L13.0053 16.8746L13.0055 16.883C13.0437 18.0288 13.305 19.0748 13.8158 19.9881C14.0196 20.3525 14.2599 20.6899 14.5351 21H6.25C4.45507 21 3 19.5449 3 17.75V8.5H21ZM17.9992 12C17.8976 12.0005 17.796 12.0412 17.7184 12.122C16.7239 13.1575 15.624 13.6667 14.4006 13.6667C14.1797 13.6667 14.0006 13.8532 14.0006 14.0833V16.5844L14.005 16.8497C14.0387 17.8629 14.2679 18.7478 14.6886 19.5C15.0126 20.0794 15.4504 20.5801 16.0001 21C16.5237 21.4 17.1492 21.7268 17.8745 21.9786C17.9566 22.0071 18.0454 22.0071 18.1275 21.9786C20.688 21.0896 22.001 19.2663 22.001 16.5844V14.0833L21.9928 13.9994C21.9556 13.8095 21.7943 13.6667 21.601 13.6667C21.3977 13.6667 21.198 13.6527 21.0016 13.6245C20.4779 13.5496 19.9783 13.3745 19.501 13.0977C19.0784 12.8527 18.6733 12.5279 18.2847 12.1223C18.206 12.0402 18.1025 11.9994 17.9992 12ZM17.75 3C19.5449 3 21 4.45507 21 6.25V7H3V6.25C3 4.45507 4.45507 3 6.25 3H17.75Z" fill="#212121"/>
</svg>

<svg xmlns="http://www.w3.org/2000/svg" width="24" height="24"><path d="M21 8.5v4.11a3.16 3.16 0 0 1-.998-.377 4.556 4.556 0 0 1-.996-.803 1.389 1.389 0 0 0-2.009 0c-.84.874-1.69 1.237-2.596 1.237-.812 0-1.4.673-1.4 1.416v2.51l.004.282v.008c.039 1.146.3 2.192.81 3.105.205.364.445.702.72 1.012H6.25A3.25 3.25 0 0 1 3 17.75V8.5h18ZM18 12a.39.39 0 0 0-.282.122c-.994 1.036-2.094 1.545-3.317 1.545-.221 0-.4.186-.4.416v2.501l.004.266c.034 1.013.263 1.898.684 2.65.324.58.761 1.08 1.311 1.5.524.4 1.15.727 1.875.979.082.028.17.028.253 0 2.56-.89 3.873-2.713 3.873-5.395v-2.5l-.008-.085a.404.404 0 0 0-.392-.332 4.133 4.133 0 0 1-2.1-.569 5.55 5.55 0 0 1-1.216-.976.391.391 0 0 0-.286-.122Zm-.25-9A3.25 3.25 0 0 1 21 6.25V7H3v-.75A3.25 3.25 0 0 1 6.25 3h11.5Z"/></svg>
